packages/core/src/Assets/SvgComponents/header/contact-us.svg

<svg width="24" height="24" viewBox="0 0 24 24" fill="none" xmlns="http://www.w3.org/2000/svg">
<path d="M5.64222 3.255C6.13517 2.87312 6.82827 2.92182 7.2843 3.38989C7.78011 3.98216 8.2102 4.62875 8.55555 5.29782C8.67886 5.50385 8.77834 5.7032 8.85493 5.89559L8.86748 5.89423H19.6974C20.3808 5.89423 20.9413 6.43212 20.9956 7.11625L21 7.22543V14.6877C21.0025 15.0425 20.8665 15.3837 20.6219 15.6356C20.4046 15.8594 20.1175 15.9962 19.8125 16.0239L19.6974 16.0291H15.4734C15.2747 16.0291 15.1136 15.8644 15.1136 15.6613C15.1136 15.4808 15.2409 15.3306 15.4087 15.2995L15.4734 15.2936H19.6974C19.8528 15.2936 20.0017 15.2302 20.1112 15.1175C20.2024 15.0236 20.2599 14.9019 20.2758 14.7704L20.2803 14.6905L20.28 7.308L14.5857 11.9965C14.067 12.43 13.3347 12.4555 12.7901 12.0725L12.6903 11.9959L8.31512 8.31848L8.30695 8.30983C8.23811 8.36571 8.16478 8.41947 8.08709 8.47108L7.98405 8.54038C7.91636 8.58814 7.85067 8.63902 7.78699 8.69303C7.23404 9.16001 7.07408 9.95764 7.40146 10.6069C8.11295 11.9925 8.73888 13.1722 9.05572 13.7051L9.14128 13.8452C9.4594 14.2802 9.9729 14.519 10.5297 14.4772C10.4947 14.4772 10.5217 14.4594 10.559 14.4405L10.973 14.247L11.1572 14.1639L11.3199 14.0935C12.0863 13.7679 12.9687 13.9392 13.5745 14.5392C14.2374 15.2469 14.7688 16.072 15.1409 16.9701C15.3732 17.512 15.2381 18.1451 14.8042 18.5412C13.6107 19.6127 11.8636 19.7047 10.1355 19.2169C8.38495 18.6217 6.75655 16.7103 5.27808 13.9302C4.28972 12.0718 3.39541 9.79857 3.14349 8.7875C2.5821 6.54398 3.72043 4.74302 5.64222 3.255ZM6.75638 3.88888C6.57337 3.70166 6.28324 3.68128 6.07689 3.84113L5.91327 3.97033C4.30022 5.26987 3.3877 6.79511 3.84074 8.60563C4.07747 9.55573 4.94954 11.7724 5.91032 13.579C7.30813 16.2074 8.835 17.9996 10.3448 18.5135C11.8449 18.9365 13.3625 18.8566 14.3271 17.9906C14.5267 17.8084 14.5891 17.5157 14.4801 17.261C14.1402 16.441 13.6572 15.691 13.0643 15.0576C12.6744 14.6717 12.0973 14.5597 11.5953 14.773L11.4429 14.8389L10.7429 15.1621C10.6658 15.1964 10.6322 15.2073 10.5991 15.2105L10.4117 15.218C9.68869 15.2263 9.00036 14.8809 8.55132 14.2656C8.35441 13.9557 8.00702 13.3252 7.57481 12.5072L6.76305 10.9462C6.27943 9.98719 6.51484 8.81333 7.32804 8.12656C7.4475 8.02524 7.57341 7.93214 7.69993 7.85116L7.78676 7.79061C8.42954 7.31946 8.54235 6.68515 7.93055 5.66161C7.5989 5.02056 7.19878 4.41903 6.75638 3.88888ZM19.6974 6.6297L9.04182 6.62993C9.08364 7.05439 8.99578 7.4348 8.79225 7.76705L13.1465 11.4271C13.4089 11.6463 13.7764 11.6646 14.0578 11.4806L14.1323 11.4254L19.909 6.67014C19.8652 6.65269 19.8188 6.64051 19.7706 6.63434L19.6974 6.6297Z" fill="url(#paint0_linear)"/>
<defs>
<linearGradient id="paint0_linear" x1="3" y1="18.1823" x2="19.6873" y2="2.88563" gradientUnits="userSpaceOnUse">
<stop stop-color="#FF444F"/>
<stop offset="1" stop-color="#FF6444"/>
</linearGradient>
</defs>
</svg>

<svg width="24" height="24" fill="none" xmlns="http://www.w3.org/2000/svg"><path d="M5.642 3.255c.493-.382 1.186-.333 1.642.135.496.592.926 1.239 1.272 1.908.123.206.222.405.299.598l.012-.002h10.83c.684 0 1.244.538 1.299 1.222l.004.11v7.462c.003.354-.134.696-.378.948-.217.223-.505.36-.81.388l-.115.005h-4.224a.364.364 0 01-.36-.368c0-.18.128-.33.296-.361l.064-.006h4.224a.577.577 0 00.414-.177.6.6 0 00.165-.347l.004-.08V7.309l-5.694 4.688a1.471 1.471 0 01-1.796.076l-.1-.076-4.375-3.678-.008-.008c-.069.056-.142.11-.22.161l-.103.07a2.802 2.802 0 00-.197.152 1.582 1.582 0 00-.386 1.914c.712 1.386 1.338 2.565 1.655 3.098l.085.14c.318.435.832.674 1.389.632-.035 0-.008-.018.029-.037l.414-.193.184-.083.163-.07a2.05 2.05 0 012.255.445 8.085 8.085 0 011.566 2.431 1.39 1.39 0 01-.337 1.571c-1.193 1.072-2.94 1.164-4.668.676-1.751-.595-3.38-2.507-4.858-5.287C4.29 12.072 3.395 9.8 3.143 8.787c-.56-2.243.577-4.044 2.5-5.532zm1.114.634a.51.51 0 00-.68-.048l-.163.13C4.3 5.27 3.388 6.794 3.841 8.605c.236.95 1.109 3.166 2.07 4.973 1.397 2.628 2.924 4.42 4.434 4.934 1.5.423 3.018.344 3.982-.522a.644.644 0 00.153-.73 7.347 7.347 0 00-1.416-2.203 1.339 1.339 0 00-1.469-.285l-.152.066-.7.323a.468.468 0 01-.144.048l-.187.008a2.269 2.269 0 01-1.86-.952c-.198-.31-.545-.94-.977-1.759l-.812-1.56a2.329 2.329 0 01.565-2.82c.12-.102.245-.195.372-.276l.087-.06c.643-.472.755-1.106.144-2.13A9.841 9.841 0 006.756 3.89zm12.941 2.74H9.042a1.79 1.79 0 01-.25 1.138l4.354 3.66c.263.22.63.238.912.054l.074-.056L19.91 6.67a.569.569 0 00-.138-.036l-.074-.004z" fill="url(#paint0_linear)"/><defs><linearGradient id="paint0_linear" x1="3" y1="18.182" x2="19.687" y2="2.886" gradientUnits="userSpaceOnUse"><stop stop-color="#FF444F"/><stop offset="1" stop-color="#FF6444"/></linearGradient></defs></svg>
